X:1
T:Title
%%score { 1 | 2 }
L:1/8
M:4/4
K:G
V:1 treble nm="Grand Piano"
V:2 bass 
V:1
 z4 z2[Q:1/4=94] [F,D]2 | [G,DG]2 [DB]2 [EA]2 [Ec]2 | B3 A G2 [=FG]2 | [Ee]2 [=Fd]2 [Ec]2 E2 | %4
[M:3/4] [EB]3 A A2 |[M:1/4] AB |[M:4/4] [Ec]2 [^DB]2 G2 B2 | c2 [^DB]2 [EG]2 [E^G]2 | %8
 [EA]2 [EB]2 [=Fd]2 [Ec]2 |[M:3/4] [DB]3 [CA] [B,G]2 |] %10
V:2
 z4 z2 D,C, | B,,2 [G,,G,]2 [C,E,]2 [A,,A,]2 | [D,F,D]3 [D,F,C] [E,G,B,]2 [D,B,]2 | %3
 [C,C]2 [C,G,]2 [C,G,]2 [C,G,]2 |[M:3/4] [^C,G,]3 [D,F,A,] [D,F,A,]2 |[M:1/4] [D,F,D]2 | %6
[M:4/4] [A,,A,]2 [B,,F,]2 [E,G,E]2 [G,E]2 | [F,A,E]2 [B,,B,]2 [E,B,]2 [D,B,]2 | %8
 [C,A,]2 [B,,^G,]2 [^G,,B,]2 [A,,A,]2 |[M:3/4] [D,F,]3 [D,F,] [G,,G,]2 |] %10

